svgs/duotone/blinds-open.svg

<svg xmlns="http://www.w3.org/2000/svg" viewBox="0 0 512 512"><!--! Font Awesome Pro 6.0.0-alpha3 by @fontawesome - https://fontawesome.com License - https://fontawesome.com/license (Commercial License) --><defs><style>.fa-secondary{opacity:.4}</style></defs><path class="fa-primary" d="M512 16v32C512 56.84 504.8 64 496 64H128v146.9C146.6 217.5 160 235.1 160 256c0 26.51-21.49 48-48 48S64 282.5 64 256c0-20.87 13.4-38.45 32-45.06V64H16C7.164 64 0 56.84 0 48v-32C0 7.162 7.164 0 16 0h480C504.8 0 512 7.162 512 16z"/><path class="fa-secondary" d="M96 64H16L0 112h96V64zM496 64H128v48h384L496 64zM96 210.9V192H16L0 240h66.94C71.79 226.5 82.44 215.8 96 210.9zM128 192v18.94C141.6 215.8 152.2 226.5 157.1 240H512L496 192H128zM16 320L0 368h512L496 320H16zM16 464L0 512h512l-16-48H16z"/></svg>

<svg xmlns="http://www.w3.org/2000/svg" viewBox="0 0 512 512"><defs><style>.fa-secondary{opacity:.4}</style></defs><path d="M96,64H16L0,112H96Zm0,146.94V192H16L0,240H66.94A48.06,48.06,0,0,1,96,210.94ZM496,64H128v48H512ZM16,320,0,368H512l-16-48Zm0,144L0,512H512l-16-48ZM128,192v18.94A48.06,48.06,0,0,1,157.06,240H512l-16-48Z" class="fa-secondary"/><path d="M512,16V48a16,16,0,0,1-16,16H128V210.94a48,48,0,1,1-32,0V64H16A16,16,0,0,1,0,48V16A16,16,0,0,1,16,0H496A16,16,0,0,1,512,16Z" class="fa-primary"/></svg>
